assets/fonts/svg-files-for-custom-font/export.svg

<svg enable-background="new 0 0 20 20" viewBox="0 0 20 20" xmlns="http://www.w3.org/2000/svg"><path d="m15 15h-13v-9h2.595s.689-.896 2.17-2h-5.765c-.553 0-1 .449-1 1v11c0 .553.447 1 1 1h15c.553 0 1-.447 1-1v-3.746l-2 1.645zm-1.639-6.95v3.551l6.639-5.201-6.639-4.999v3.131c-8.061 0-8.061 7.968-8.061 7.968 2.282-3.748 3.686-4.45 8.061-4.45z"/></svg>

<?xml version="1.0" encoding="iso-8859-1"?>
<!-- Generator: Adobe Illustrator 18.1.0, SVG Export Plug-In . SVG Version: 6.00 Build 0)  -->
<!DOCTYPE svg PUBLIC "-//W3C//DTD SVG 1.1//EN" "http://www.w3.org/Graphics/SVG/1.1/DTD/svg11.dtd">
<svg version="1.1" id="Export" xmlns="http://www.w3.org/2000/svg" xmlns:xlink="http://www.w3.org/1999/xlink" x="0px" y="0px"
	 viewBox="0 0 20 20" style="enable-background:new 0 0 20 20;" xml:space="preserve">
<path d="M15,15H2V6h2.595c0,0,0.689-0.896,2.17-2H1C0.447,4,0,4.449,0,5v11c0,0.553,0.447,1,1,1h15c0.553,0,1-0.447,1-1v-3.746
	l-2,1.645V15z M13.361,8.05v3.551L20,6.4l-6.639-4.999v3.131C5.3,4.532,5.3,12.5,5.3,12.5C7.582,8.752,8.986,8.05,13.361,8.05z"/>
</svg>
